!!!OTL: In der Heimat ist es schön (3-51), S. 135f
!!!id: K1181
**kern
*clefG2
*k[]
*C:
{8.e
16f
=1
4.g
8e
8.cc
16b
=2
2a}
=3
{8.a
16g
=4
4.f
8e
8.f
16a
=5
2g}
=6
{8.e
16f
=7
4.g
8e
8.cc
16b
=8
8b
8a
4a}
=9
{16c
8a
8b
8cc
16c
=10
4.b
8g
16c
8f#
8g
8a
16c
=11
8a
8g
8.g
16f}
=12
{8.e
16f
=13
4.g
8a
8b
8cc
=14
2a}
=15
{8cc
8a
=16
8a
8g
4g
8b
8dd
=17
4ee
4cc}
=18
{16c
8cc
8b
8a
16c
=19
8a
8g
4g
8b
8dd
=20
2cc}
==
*-
!!!minrhy: 16
!!!meters: 3/4 ]  ZZ[7
!!!cut: In der Heimat ist es schön (3-51), S. 135f
!!!reg: Luxemburg
!!!trd: KINTZELE, Guillaume: An der Ucht, Bd. 3 Luxemburg 1928
!!!rhy1: X_.X  X__.X_X_.X  X___
!!!rhy2: X_.X  X__.X_X_.X  X___
!!!key: K1181  16  C 3/4 ]  ZZ[7
!!!mod: ACHTTONSKALA DUR ?]  AMBITUS[8
!!!kad: 65646+1+1
!!!akz: 56_45_57_76_56_6+3_6+1_
!!!fot: 'a__b__aw_c__aw_d__dw_
!!!for: 'a__a__aw_b__c__d__dw_
!!!fok: '^a_Vd_^a_\__^a_S__V__
!! PHRAS[AUFTAKTIG]
!!!fkt: Heimatlied
!!!bem: in der Quelle mit einer 2. Stimme versehen
!! KINTZELE
!! PR[39] 2K[0] 2G[2] 3K[2] 3G[2] 4A[2] 4Ü[0] 5A[0] 6K[5] 6G[5]
!! 7K[0] 7G[0] 8A[0] MEHR[0] SI[18] ABS[44] SR[2] SP[16]
!! ST[12] 2k[11] 2g[25] 3k[0] 3g[0] 4d[5] 4ü[2] 5d[0] 6k[0] 6g[0]
!! 7k[0] 7g[0] 8d[0] mehr[0] si[43] dm[-25] sr[36] sp[7]
!! 1F[4] 2F[56] 3F[20] 4F[9] LF[0] 2P[4] 3P[7] 4P[0] TRI[0] DF[6] AB[45]
!! TF[0] U3K[0] U3[0] U4[2] U4Ü[0] U5[20] U6K[0] U6[20] U7K[0] U7[7]
!! N1[20] N2K[0] N2[13] N3K[0] N3[13] N4[4] N4Ü[0] N5[0] N6K[0] N6[0]
!!!n7k: 0] N7[0] O1[0] O2K[0] O2[0] O3K[0] O3[0] HÖ[0
